utils/icons-generator/ic_platform_disc.svg

<?xml version="1.0" encoding="UTF-8"?>
<svg xmlns="http://www.w3.org/2000/svg" xmlns:xlink="http://www.w3.org/1999/xlink" width="1000pt" height="1000pt" viewBox="0 0 1000 1000" version="1.1">
<g id="surface1">
<path style=" stroke:none;fill-rule:nonzero;fill:rgb(0%,0%,0%);fill-opacity:1;" d="M 500 310.351562 C 395.117188 310.351562 310.15625 395.3125 310.15625 500.195312 C 310.15625 605.078125 395.117188 689.84375 500 689.84375 C 604.882812 689.84375 689.84375 604.882812 689.84375 500.195312 C 689.84375 395.3125 604.882812 310.351562 500 310.351562 Z M 500 584.960938 C 453.125 584.960938 415.039062 546.875 415.039062 500 C 415.039062 453.125 453.125 415.039062 500 415.039062 C 546.875 415.039062 584.960938 453.125 584.960938 500 C 584.960938 546.875 546.875 584.960938 500 584.960938 Z M 500 584.960938 "/>
<path style=" stroke:none;fill-rule:nonzero;fill:rgb(0%,0%,0%);fill-opacity:1;" d="M 500 62.5 C 258.398438 62.5 62.5 258.398438 62.5 500 C 62.5 741.601562 258.398438 937.5 500 937.5 C 741.601562 937.5 937.5 741.601562 937.5 500 C 937.5 258.398438 741.601562 62.5 500 62.5 Z M 500 739.84375 C 367.578125 739.84375 260.15625 632.421875 260.15625 500 C 260.15625 367.578125 367.578125 260.15625 500 260.15625 C 632.421875 260.15625 739.84375 367.578125 739.84375 500 C 739.84375 632.421875 632.421875 739.84375 500 739.84375 Z M 500 739.84375 "/>
</g>
</svg>

<?xml version="1.0" encoding="UTF-8" standalone="no"?>
<svg
   xmlns:dc="http://purl.org/dc/elements/1.1/"
   xmlns:cc="http://creativecommons.org/ns#"
   xmlns:rdf="http://www.w3.org/1999/02/22-rdf-syntax-ns#"
   xmlns:svg="http://www.w3.org/2000/svg"
   xmlns="http://www.w3.org/2000/svg"
   xmlns:sodipodi="http://sodipodi.sourceforge.net/DTD/sodipodi-0.dtd"
   xmlns:inkscape="http://www.inkscape.org/namespaces/inkscape"
   width="1000pt"
   height="1000pt"
   viewBox="0 0 1000 1000"
   version="1.1"
   id="svg1158"
   sodipodi:docname="ic_platform_disc.svg"
   inkscape:version="0.92.4 (5da689c313, 2019-01-14)">
  <metadata
     id="metadata1164">
    <rdf:RDF>
      <cc:Work
         rdf:about="">
        <dc:format>image/svg+xml</dc:format>
        <dc:type
           rdf:resource="http://purl.org/dc/dcmitype/StillImage" />
      </cc:Work>
    </rdf:RDF>
  </metadata>
  <defs
     id="defs1162" />
  <sodipodi:namedview
     pagecolor="#ffffff"
     bordercolor="#666666"
     borderopacity="1"
     objecttolerance="10"
     gridtolerance="10"
     guidetolerance="10"
     inkscape:pageopacity="0"
     inkscape:pageshadow="2"
     inkscape:window-width="2560"
     inkscape:window-height="1346"
     id="namedview1160"
     showgrid="false"
     inkscape:zoom="0.177"
     inkscape:cx="666.66667"
     inkscape:cy="666.66667"
     inkscape:window-x="-11"
     inkscape:window-y="-11"
     inkscape:window-maximized="1"
     inkscape:current-layer="svg1158" />
  <g
     id="surface1"
     transform="matrix(1.14,0,0,1.14,-69.999983,-69.999983)">
    <path
       style="fill:#000000;fill-opacity:1;fill-rule:nonzero;stroke:none"
       d="m 500,310.35156 c -104.88281,0 -189.84375,84.96094 -189.84375,189.84375 0,104.88281 84.96094,189.64844 189.84375,189.64844 104.88281,0 189.84375,-84.96094 189.84375,-189.64844 C 689.84375,395.3125 604.88281,310.35156 500,310.35156 Z m 0,274.60938 c -46.875,0 -84.96094,-38.08594 -84.96094,-84.96094 0,-46.875 38.08594,-84.96094 84.96094,-84.96094 46.875,0 84.96094,38.08594 84.96094,84.96094 0,46.875 -38.08594,84.96094 -84.96094,84.96094 z m 0,0"
       id="path1153"
       inkscape:connector-curvature="0" />
    <path
       style="fill:#000000;fill-opacity:1;fill-rule:nonzero;stroke:none"
       d="M 500,62.5 C 258.39844,62.5 62.5,258.39844 62.5,500 62.5,741.60156 258.39844,937.5 500,937.5 741.60156,937.5 937.5,741.60156 937.5,500 937.5,258.39844 741.60156,62.5 500,62.5 Z m 0,677.34375 C 367.57812,739.84375 260.15625,632.42187 260.15625,500 260.15625,367.57812 367.57812,260.15625 500,260.15625 c 132.42187,0 239.84375,107.42187 239.84375,239.84375 0,132.42187 -107.42188,239.84375 -239.84375,239.84375 z m 0,0"
       id="path1155"
       inkscape:connector-curvature="0" />
  </g>
</svg>
